X: 3285
M: 9/8
L: 1/8
K: Am
c |\
cBA GAB cde | edB e2^G A2 ::\
e |\
a2A c2e cBA | g2G B2d BAG |
cea gfe dcB | cBA e2^G A2 ::\
e |\
aea Ace cea | g^fg GBd Bdg |\
cea gfe dcB | cBA e2^G A2 :|


